src/assets/vk_white.svg

<svg width="50" height="50" viewBox="0 0 50 50" fill="none" xmlns="http://www.w3.org/2000/svg">
<path d="M25 5C36.046 5 45 13.954 45 25C45 36.046 36.046 45 25 45C21.4656 45.0057 17.9933 44.0703 14.94 42.29L5.00803 45L7.71203 35.064C5.93021 32.0097 4.99412 28.536 5.00003 25C5.00003 13.954 13.954 5 25 5ZM18.184 15.6L17.784 15.616C17.5251 15.6318 17.272 15.6998 17.04 15.816C16.8231 15.9389 16.625 16.0924 16.452 16.272C16.212 16.498 16.076 16.694 15.93 16.884C15.1903 17.8458 14.792 19.0266 14.798 20.24C14.802 21.22 15.058 22.174 15.458 23.066C16.276 24.87 17.622 26.78 19.398 28.55C19.826 28.976 20.246 29.404 20.698 29.802C22.9048 31.7449 25.5345 33.1461 28.378 33.894L29.514 34.068C29.884 34.088 30.254 34.06 30.626 34.042C31.2085 34.0119 31.7772 33.8542 32.292 33.58C32.5539 33.4451 32.8095 33.2983 33.058 33.14C33.058 33.14 33.144 33.084 33.308 32.96C33.578 32.76 33.744 32.618 33.968 32.384C34.134 32.212 34.278 32.01 34.388 31.78C34.544 31.454 34.7 30.832 34.764 30.314C34.812 29.918 34.798 29.702 34.792 29.568C34.784 29.354 34.606 29.132 34.412 29.038L33.248 28.516C33.248 28.516 31.508 27.758 30.444 27.274C30.3327 27.2254 30.2134 27.1976 30.092 27.192C29.9552 27.1779 29.8169 27.1933 29.6865 27.2371C29.5561 27.281 29.4366 27.3522 29.336 27.446C29.326 27.442 29.192 27.556 27.746 29.308C27.663 29.4195 27.5487 29.5038 27.4176 29.5501C27.2865 29.5964 27.1446 29.6026 27.01 29.568C26.8797 29.533 26.7521 29.4889 26.628 29.436C26.38 29.332 26.294 29.292 26.124 29.22C24.9761 28.7191 23.9134 28.0423 22.974 27.214C22.722 26.994 22.488 26.754 22.248 26.522C21.4612 25.7684 20.7755 24.916 20.208 23.986L20.09 23.796C20.0053 23.6683 19.9367 23.5306 19.886 23.386C19.81 23.092 20.008 22.856 20.008 22.856C20.008 22.856 20.494 22.324 20.72 22.036C20.94 21.756 21.126 21.484 21.246 21.29C21.482 20.91 21.556 20.52 21.432 20.218C20.872 18.85 20.292 17.488 19.696 16.136C19.578 15.868 19.228 15.676 18.91 15.638C18.802 15.626 18.694 15.614 18.586 15.606C18.3174 15.5927 18.0483 15.5953 17.78 15.614L18.184 15.6Z" fill="white"/>
</svg>

<svg xmlns="http://www.w3.org/2000/svg" width="50" height="50" fill="none"><path fill="#fff" d="M25 5c11.046 0 20 8.954 20 20s-8.954 20-20 20a19.9 19.9 0 0 1-10.06-2.71L5.008 45l2.704-9.936A19.9 19.9 0 0 1 5 25C5 13.954 13.954 5 25 5m-6.816 10.6-.4.016a1.9 1.9 0 0 0-.744.2 2.6 2.6 0 0 0-.588.456c-.24.226-.376.422-.522.612a5.46 5.46 0 0 0-1.132 3.356c.004.98.26 1.934.66 2.826.818 1.804 2.164 3.714 3.94 5.484.428.426.848.854 1.3 1.252a18.9 18.9 0 0 0 7.68 4.092l1.136.174c.37.02.74-.008 1.112-.026a4 4 0 0 0 1.666-.462q.393-.203.766-.44s.086-.056.25-.18c.27-.2.436-.342.66-.576.166-.172.31-.374.42-.604.156-.326.312-.948.376-1.466.048-.396.034-.612.028-.746-.008-.214-.186-.436-.38-.53l-1.164-.522s-1.74-.758-2.804-1.242a1 1 0 0 0-.352-.082.96.96 0 0 0-.756.254c-.01-.004-.144.11-1.59 1.862a.7.7 0 0 1-.736.26 3 3 0 0 1-.382-.132c-.248-.104-.334-.144-.504-.216a12 12 0 0 1-3.15-2.006c-.252-.22-.486-.46-.726-.692a12.6 12.6 0 0 1-2.04-2.536l-.118-.19a2 2 0 0 1-.204-.41c-.076-.294.122-.53.122-.53s.486-.532.712-.82c.22-.28.406-.552.526-.746.236-.38.31-.77.186-1.072q-.841-2.053-1.736-4.082c-.118-.268-.468-.46-.786-.498a9 9 0 0 0-.324-.032 7 7 0 0 0-.806.008z"/></svg>
